assets/images/svg/board_progress_24.svg

<svg width="24" height="24" viewBox="0 0 24 24" fill="none" xmlns="http://www.w3.org/2000/svg">
<path d="M15.9487 18.6667H4C2.34314 18.6667 1 17.3235 1 15.6667V8.79487M17.9231 18.6667H20C21.6569 18.6667 23 17.3235 23 15.6667V7C23 5.34315 21.6569 4 20 4H4C2.34315 4 1 5.34315 1 7V7.10256" stroke="white" stroke-width="0.4" stroke-linecap="round"/>
<path d="M21.5897 16.2215V6.62891C21.5897 6.07662 21.142 5.62891 20.5897 5.62891H19.6154M21.5897 16.2215H2.41026M21.5897 16.2215H23H2.41026M2.41026 16.2215V6.62891C2.41026 6.07662 2.85797 5.62891 3.41026 5.62891H17.641M2.41026 16.2215H1" stroke="white" stroke-width="0.4" stroke-linecap="round"/>
<path d="M6.36233 9.67603L6.1928 9.67603C5.96483 9.63828 5.69074 9.48352 5.45404 9.23846C5.06217 8.83278 4.92116 8.33327 5.13907 8.12279C5.35698 7.9123 5.8513 8.07054 6.24316 8.47622C6.48495 8.72654 6.63124 9.01257 6.65663 9.2444L6.65663 9.4032" stroke="white" stroke-width="0.4"/>
<path d="M10.7738 12.8785C10.8678 13.3172 10.8857 13.713 10.815 14.0323C10.0758 14.1012 9.10097 13.8576 8.20795 13.4085C7.26086 12.9323 6.45878 12.2517 6.14043 11.544C5.8172 10.8255 6.04714 10.1255 6.54312 9.65792C7.04151 9.18807 7.7886 8.97363 8.46925 9.22226C8.73129 9.34673 9.03939 9.61682 9.35134 9.99599C9.66299 10.3748 9.96599 10.8472 10.2179 11.3511C10.47 11.8552 10.6681 12.3852 10.7738 12.8785Z" stroke="white" stroke-width="0.4"/>
<path d="M5.79622 8.14739C5.7539 7.81335 5.87781 7.57987 6.07886 7.49084C6.36896 7.36238 6.78927 7.67632 7.01765 8.19205C7.15408 8.50012 7.19115 8.81052 7.13706 9.03791L7.07984 9.23237" stroke="white" stroke-width="0.4"/>
<path d="M7.65669 10.8189L8.95093 9.51758M9.05419 12.3381L10.1824 11.2099M7.65669 12.0322L7.07983 12.6201M9.51716 13.3265L9.05419 13.7483" stroke="white" stroke-width="0.4" stroke-linecap="round"/>
<path d="M5.22995 8.97467L5.17403 8.97467C4.8364 8.93339 4.55546 9.02486 4.47173 9.22764C4.3544 9.51182 4.66883 9.91129 5.17403 10.1199C5.42886 10.2251 5.68356 10.2617 5.88847 10.2356L5.95796 10.2356" stroke="white" stroke-width="0.4"/>
<path d="M18.8924 9.70153C18.9949 9.97521 19.051 10.2716 19.051 10.5811C19.051 11.9657 17.9285 13.0882 16.5439 13.0882C15.9302 13.0882 15.3681 12.8677 14.9323 12.5017M14.9323 12.5017L16 12M14.9323 12.5017L15 13.5M14.297 11.6947C14.1304 11.3592 14.0367 10.9811 14.0367 10.5811C14.0367 9.19645 15.1592 8.07397 16.5439 8.07397C17.1375 8.07397 17.6829 8.28027 18.1123 8.62507M18.1123 8.62507L18 7.5M18.1123 8.62507L17 9" stroke="white" stroke-width="0.4"/>
</svg>

<svg xmlns="http://www.w3.org/2000/svg" width="24" height="24" fill="none">
    <path stroke="#fff" stroke-linecap="round" stroke-width=".4"
        d="M15.95 18.67H4a3 3 0 0 1-3-3V8.79m16.92 9.88H20a3 3 0 0 0 3-3V7a3 3 0 0 0-3-3H4a3 3 0 0 0-3 3v.1" />
    <path stroke="#fff" stroke-linecap="round" stroke-width=".4"
        d="M21.59 16.22v-9.6a1 1 0 0 0-1-1h-.97m1.97 10.6H2.41m19.18 0H23 2.41m0 0v-9.6a1 1 0 0 1 1-1h14.23M2.41 16.23H1" />
    <path stroke="#fff" stroke-width=".4"
        d="M6.36 9.68H6.2c-.23-.04-.5-.2-.74-.44-.39-.4-.53-.9-.31-1.12.22-.2.71-.05 1.1.36.24.25.4.53.42.76v.16M10.77 12.88c.1.44.12.83.04 1.15a5.18 5.18 0 0 1-2.6-.62 4.44 4.44 0 0 1-2.07-1.87c-.32-.71-.1-1.41.4-1.88a1.9 1.9 0 0 1 1.93-.44c.26.13.57.4.88.78a7.34 7.34 0 0 1 1.42 2.88Z" />
    <path stroke="#fff" stroke-width=".4"
        d="M5.8 8.15c-.05-.34.08-.57.28-.66.29-.13.7.19.94.7.13.31.17.62.12.85l-.06.2" />
    <path stroke="#fff" stroke-linecap="round" stroke-width=".4"
        d="m7.66 10.82 1.3-1.3m.1 2.82 1.12-1.13m-2.52.82-.58.59m2.44.7-.47.43" />
    <path stroke="#fff" stroke-width=".4"
        d="M5.23 8.97h-.06c-.33-.04-.61.05-.7.26-.12.28.2.68.7.89.26.1.51.14.72.12h.07M18.9 9.7a2.5 2.5 0 0 1-3.97 2.8m0 0L16 12m-1.07.5.07 1m-.7-1.8a2.5 2.5 0 0 1 3.82-3.07m0 0L18 7.5m.11 1.13L17 9" />
</svg>
